mobile/assets/icons/svgs/custom/clinic-dark.svg

<svg fill="none" height="500" viewBox="0 0 500 500" width="500" xmlns="http://www.w3.org/2000/svg"><path d="m423.39 163.52h13.73v36.85h-13.73z" fill="#fff"/><path d="m355.47 103.23c-.57-.001-1.139.049-1.7.15.661-.11 1.33-.157 2-.14zm0 0c-.57-.001-1.139.049-1.7.15.661-.11 1.33-.157 2-.14zm0 0c-.57-.001-1.139.049-1.7.15.661-.11 1.33-.157 2-.14zm0 0c-.57-.001-1.139.049-1.7.15.661-.11 1.33-.157 2-.14zm0 0c-.57-.001-1.139.049-1.7.15.661-.11 1.33-.157 2-.14zm0 0c-.57-.001-1.139.049-1.7.15.661-.11 1.33-.157 2-.14zm0 0c-.57-.001-1.139.049-1.7.15.661-.11 1.33-.157 2-.14zm0 0c-.57-.001-1.139.049-1.7.15.661-.11 1.33-.157 2-.14zm0 0c-.57-.001-1.139.049-1.7.15.661-.11 1.33-.157 2-.14zm0 0c-.57-.001-1.139.049-1.7.15.661-.11 1.33-.157 2-.14zm0 0c-.57-.001-1.139.049-1.7.15.661-.11 1.33-.157 2-.14zm0 0c-.57-.001-1.139.049-1.7.15.661-.11 1.33-.157 2-.14zm0 0c-.57-.001-1.139.049-1.7.15.661-.11 1.33-.157 2-.14zm0 0c-.57-.001-1.139.049-1.7.15.661-.11 1.33-.157 2-.14zm0 0c-.57-.001-1.139.049-1.7.15.661-.11 1.33-.157 2-.14zm0 0c-.57-.001-1.139.049-1.7.15.661-.11 1.33-.157 2-.14zm27.23 25.15v-4.2c0-1.11 0-2.19 0-3.27 0-2.27 0-4.42 0-6.58.019-7.406-2.851-14.5268-8-19.85-2.502-2.5529-5.492-4.5766-8.792-5.9509-3.301-1.3743-6.843-2.0711-10.418-2.0491-15.14 0-27.1 12.2-27.23 27.76v6.43 3.23 4.2h-29.4v-4.2c0-1.14 0-2.28 0-3.42 0-2.45 0-5 0-7.42-.31-12.55-9.61-23.72-21.64-26-1.799-.3497-3.627-.5271-5.46-.53-5.385-.0563-10.663 1.4991-15.158 4.466-4.494 2.967-7.998 7.2101-10.062 12.184-2 4.63-2.27 9.64-2.12 15.74v3.43 1.63 4.2h-29.42v-4.18c0-1.12 0-2.24 0-3.36 0-2.37 0-4.81 0-7.19-.066-7.205-2.983-14.0898-8.112-19.1496-5.129-5.0599-12.053-7.8825-19.258-7.8504h-.63c-6.86.2281-13.383 3.0291-18.272 7.8463-4.89 4.8172-7.788 11.2977-8.118 18.1537-.08 2.5 0 5 0 7.68v3.87 4.2h-41.94v20.9 91.58c.072 1.665-.286 3.32-1.041 4.806s-1.881 2.751-3.269 3.674c-31.3399 23.21-43.8999 53.47-37.3399 90 3.29 18.26 10.58 33.58 21.71 45.53 10.9999 11.8 25.7499 20.42 43.9099 25.62 7.479 2.139 15.221 3.219 23 3.21 14.126-.057 28.04-3.443 40.612-9.883 12.573-6.441 23.449-15.755 31.748-27.187 1.069-1.633 2.545-2.959 4.283-3.846 1.738-.888 3.678-1.306 5.627-1.214 41.18.06 82.18.07 120.37.07h56.34v-243.08zm-41.8-16c.302-3.654 1.969-7.059 4.669-9.539s6.235-3.8509 9.901-3.841h.36c3.701.1138 7.222 1.618 9.863 4.213 2.641 2.594 4.208 6.089 4.387 9.787.13 2.5.1 4.93.07 7.48v3.43 4.2h-29.32v-4.2c0-1.16 0-2.34 0-3.48-.08-2.62-.14-5.33.07-8.05zm-83.58-1.3c.545-3.386 2.292-6.462 4.919-8.666 2.628-2.204 5.962-3.3872 9.391-3.334h.91c3.612.2287 7.011 1.785 9.544 4.37 2.533 2.584 4.02 6.014 4.176 9.63.12 2.49.09 4.92.07 7.49v3.51 4.2h-29.16v-4.28c0-1.21 0-2.44-.08-3.72-.184-3.068-.107-6.145.23-9.2zm-84.11 1.63c.238-3.71 1.88-7.191 4.592-9.735 2.712-2.543 6.29-3.9586 10.008-3.9586s7.297 1.4156 10.008 3.9586c2.712 2.544 4.354 6.025 4.592 9.735.17 2.62.12 5.25.09 7.79v3.48 4.2h-29.3v-4.2c0-1.18 0-2.34 0-3.47-.1-2.57-.14-5.2.01-7.8zm47 265.35c-7.179 7.231-15.722 12.966-25.134 16.871s-19.506 5.904-29.696 5.879h-.2c-17.971-.016-35.381-6.262-49.264-17.674s-23.3802-27.284-26.8739-44.912c-3.4938-17.629-.768-35.923 7.713-51.767 8.4809-15.845 22.1929-28.259 38.7989-35.128 16.607-6.869 35.082-7.768 52.277-2.545 17.196 5.224 32.048 16.247 42.028 31.193 9.98 14.945 14.47 32.888 12.705 50.773-1.765 17.884-9.675 34.603-22.384 47.31zm191.59-19.29h-162.66l1.58-5.38c5.27-17.94 6.27-34.77 2.95-50-3.42-15.77-11.56-30.27-24.17-43.09-17.7-18-38.74-27.13-62.49-27.13-10.248.093-20.437 1.57-30.29 4.39l-5.32 1.44v-35h280.4zm0-167.7h-280.41v-49.88h29.16v20.53h12.45v-20.57h71.31v20.61h12.6v-20.66h71.18v20.59h12.6v-20.51h71.13zm-56.37-87.84c-.57-.001-1.139.049-1.7.15.661-.11 1.33-.157 2-.14zm0 0c-.57-.001-1.139.049-1.7.15.661-.11 1.33-.157 2-.14zm0 0c-.57-.001-1.139.049-1.7.15.661-.11 1.33-.157 2-.14zm0 0c-.57-.001-1.139.049-1.7.15.661-.11 1.33-.157 2-.14zm0 0c-.57-.001-1.139.049-1.7.15.661-.11 1.33-.157 2-.14zm0 0c-.57-.001-1.139.049-1.7.15.661-.11 1.33-.157 2-.14zm0 0c-.57-.001-1.139.049-1.7.15.661-.11 1.33-.157 2-.14zm0 0c-.57-.001-1.139.049-1.7.15.661-.11 1.33-.157 2-.14zm0 0c-.57-.001-1.139.049-1.7.15.661-.11 1.33-.157 2-.14zm0 0c-.57-.001-1.139.049-1.7.15.661-.11 1.33-.157 2-.14zm0 0c-.57-.001-1.139.049-1.7.15.661-.11 1.33-.157 2-.14zm0 0c-.57-.001-1.139.049-1.7.15.661-.11 1.33-.157 2-.14zm0 0c-.57-.001-1.139.049-1.7.15.661-.11 1.33-.157 2-.14zm0 0c-.57-.001-1.139.049-1.7.15.661-.11 1.33-.157 2-.14zm0 0c-.57-.001-1.139.049-1.7.15.661-.11 1.33-.157 2-.14zm0 0c-.57-.001-1.139.049-1.7.15.661-.11 1.33-.157 2-.14zm0 0c-.57-.001-1.139.049-1.7.15.661-.11 1.33-.157 2-.14z" fill="#fff"/><path d="m411.84 141.18v49.89h-280.45v-49.88h29.16v20.53h12.48v-20.57h71.3v20.61h12.6v-20.66h71.18v20.59h12.6v-20.51z" fill="#daa900"/><path d="m244.43 323.22c-.029 20.943-8.362 41.02-23.171 55.829s-34.886 23.142-55.829 23.171h-.2c-15.616-.042-30.869-4.71-43.833-13.416s-23.0565-21.058-29.0036-35.497-7.4817-30.317-4.4098-45.627c3.0719-15.311 10.6125-29.368 21.6694-40.395 11.056-11.028 25.133-18.531 40.452-21.562s31.192-1.455 45.615 4.531c14.423 5.985 26.749 16.111 35.421 29.098 8.671 12.987 13.299 28.252 13.299 43.868z" fill="#daa900"/><g fill="#fff"><path d="m286.61 233.42h33.07v12.12h-33.07z"/><path d="m349.35 233.35h33.07v12.13h-33.07z"/><path d="m286.61 275.33h33.07v12.12h-33.07z"/><path d="m349.47 275.32h33.07v12.14h-33.07z"/><path d="m286.39 317.26h33.2v12.09h-33.2z"/><path d="m349.38 317.27h33.08v12.13h-33.08z"/><path d="m189.85 373.85c-3.35-.7-6.69-1.41-10-2.09-3.88-.79-7.74-1.77-11.65-2.29-5.9-.78-11.56.73-17.22 2.27-2.942.834-5.955 1.396-9 1.68-3.959.374-7.916-.728-11.111-3.094-3.195-2.367-5.403-5.831-6.199-9.726-.755-2.795-.716-5.745.11-8.519.827-2.775 2.409-5.265 4.57-7.191 6.48-6.15 13-12.31 19.48-18.41 4.322-4.112 10.059-6.405 16.025-6.405 5.965 0 11.703 2.293 16.025 6.405 6.56 6.14 13.08 12.313 19.56 18.52 4.83 4.62 6.21 10.28 4.29 16.58s-6.1 10.38-12.69 11.73l-.49.09-1.61.12z"/><path d="m161.17 292.62c-.17 5.38-1.39 10.26-4.77 14.38-5.06 6.22-12.82 6.22-17.84 0-3.78-4.72-5-10.23-4.64-16.16.155-3.825 1.261-7.551 3.22-10.84 2.48-3.94 5.86-6.52 10.75-6.39 1.767.067 3.494.545 5.044 1.395 1.55.851 2.88 2.051 3.886 3.505 3.18 4.19 4.18 9.09 4.35 14.11z"/><path d="m168.52 292.42c-.012-4.365 1.145-8.653 3.35-12.42 2.45-3.9 5.81-6.44 10.65-6.34 1.661.057 3.289.479 4.768 1.236 1.48.757 2.774 1.83 3.792 3.144 2.453 3.044 3.986 6.725 4.42 10.61.93 6.16 0 12-3.49 17.19-2.58 3.81-6 6.28-10.91 5.8-3.92-.38-6.66-2.72-8.78-5.84-2.598-3.97-3.923-8.637-3.8-13.38z"/><path d="m130.85 318.79c.085 2.806-.415 5.599-1.47 8.2-3 6.76-10.16 8.19-15.48 3.05-3.53-3.41-5.27-7.74-6.15-12.46-.893-4.021-.566-8.216.94-12.05 2.75-6.5 9.54-8.15 14.89-3.56 4.23 3.62 6.23 8.43 7 13.83.17 1.2.22 2.38.27 2.99z"/><path d="m198.84 318.46c.038-5.434 2.009-10.677 5.56-14.79 1.09-1.239 2.378-2.29 3.81-3.11 1.843-1.128 4.052-1.498 6.162-1.029 2.11.468 3.955 1.737 5.148 3.539 1.739 2.443 2.723 5.343 2.83 8.34.486 5.953-1.206 11.88-4.76 16.68-.859 1.277-1.97 2.364-3.265 3.195s-2.746 1.387-4.265 1.635c-4.2.59-7.83-1.64-9.76-5.87-1.134-2.715-1.633-5.653-1.46-8.59z"/></g></svg>

<svg width="500" height="500" viewBox="0 0 500 500" fill="none" xmlns="http://www.w3.org/2000/svg">
<path d="M423.39 163.52H437.12V200.37H423.39V163.52Z" fill="white"/>
<path d="M355.47 103.23C354.9 103.229 354.331 103.279 353.77 103.38C354.431 103.27 355.1 103.223 355.77 103.24L355.47 103.23ZM355.47 103.23C354.9 103.229 354.331 103.279 353.77 103.38C354.431 103.27 355.1 103.223 355.77 103.24L355.47 103.23ZM355.47 103.23C354.9 103.229 354.331 103.279 353.77 103.38C354.431 103.27 355.1 103.223 355.77 103.24L355.47 103.23ZM355.47 103.23C354.9 103.229 354.331 103.279 353.77 103.38C354.431 103.27 355.1 103.223 355.77 103.24L355.47 103.23ZM355.47 103.23C354.9 103.229 354.331 103.279 353.77 103.38C354.431 103.27 355.1 103.223 355.77 103.24L355.47 103.23ZM355.47 103.23C354.9 103.229 354.331 103.279 353.77 103.38C354.431 103.27 355.1 103.223 355.77 103.24L355.47 103.23ZM355.47 103.23C354.9 103.229 354.331 103.279 353.77 103.38C354.431 103.27 355.1 103.223 355.77 103.24L355.47 103.23ZM355.47 103.23C354.9 103.229 354.331 103.279 353.77 103.38C354.431 103.27 355.1 103.223 355.77 103.24L355.47 103.23ZM355.47 103.23C354.9 103.229 354.331 103.279 353.77 103.38C354.431 103.27 355.1 103.223 355.77 103.24L355.47 103.23ZM355.47 103.23C354.9 103.229 354.331 103.279 353.77 103.38C354.431 103.27 355.1 103.223 355.77 103.24L355.47 103.23ZM355.47 103.23C354.9 103.229 354.331 103.279 353.77 103.38C354.431 103.27 355.1 103.223 355.77 103.24L355.47 103.23ZM355.47 103.23C354.9 103.229 354.331 103.279 353.77 103.38C354.431 103.27 355.1 103.223 355.77 103.24L355.47 103.23ZM355.47 103.23C354.9 103.229 354.331 103.279 353.77 103.38C354.431 103.27 355.1 103.223 355.77 103.24L355.47 103.23ZM355.47 103.23C354.9 103.229 354.331 103.279 353.77 103.38C354.431 103.27 355.1 103.223 355.77 103.24L355.47 103.23ZM355.47 103.23C354.9 103.229 354.331 103.279 353.77 103.38C354.431 103.27 355.1 103.223 355.77 103.24L355.47 103.23ZM355.47 103.23C354.9 103.229 354.331 103.279 353.77 103.38C354.431 103.27 355.1 103.223 355.77 103.24L355.47 103.23ZM382.7 128.38V124.18C382.7 123.07 382.7 121.99 382.7 120.91C382.7 118.64 382.7 116.49 382.7 114.33C382.719 106.924 379.849 99.8032 374.7 94.48C372.198 91.9271 369.208 89.9034 365.908 88.5291C362.607 87.1548 359.065 86.458 355.49 86.48C340.35 86.48 328.39 98.68 328.26 114.24V120.67V123.9V128.1H298.86V123.9C298.86 122.76 298.86 121.62 298.86 120.48C298.86 118.03 298.86 115.48 298.86 113.06C298.55 100.51 289.25 89.34 277.22 87.06C275.421 86.7103 273.593 86.5329 271.76 86.53C266.375 86.4737 261.097 88.0291 256.602 90.996C252.108 93.963 248.604 98.2061 246.54 103.18C244.54 107.81 244.27 112.82 244.42 118.92V122.35V123.98V128.18H215V124C215 122.88 215 121.76 215 120.64C215 118.27 215 115.83 215 113.45C214.934 106.245 212.017 99.3602 206.888 94.3004C201.759 89.2405 194.835 86.4179 187.63 86.45H187C180.14 86.6781 173.617 89.4791 168.728 94.2963C163.838 99.1135 160.94 105.594 160.61 112.45C160.53 114.95 160.61 117.45 160.61 120.13V124V128.2H118.67V149.1V240.68C118.742 242.345 118.384 244 117.629 245.486C116.874 246.972 115.748 248.237 114.36 249.16C83.0201 272.37 70.4601 302.63 77.0201 339.16C80.3101 357.42 87.6001 372.74 98.7301 384.69C109.73 396.49 124.48 405.11 142.64 410.31C150.119 412.449 157.861 413.529 165.64 413.52C179.766 413.463 193.68 410.077 206.252 403.637C218.825 397.196 229.701 387.882 238 376.45C239.069 374.817 240.545 373.491 242.283 372.604C244.021 371.716 245.961 371.298 247.91 371.39C289.09 371.45 330.09 371.46 368.28 371.46H424.62V128.38H382.7ZM340.9 112.38C341.202 108.726 342.869 105.321 345.569 102.841C348.269 100.361 351.804 98.9901 355.47 99H355.83C359.531 99.1138 363.052 100.618 365.693 103.213C368.334 105.807 369.901 109.302 370.08 113C370.21 115.5 370.18 117.93 370.15 120.48V123.91V128.11H340.83V123.91C340.83 122.75 340.83 121.57 340.83 120.43C340.75 117.81 340.69 115.1 340.9 112.38ZM257.32 111.08C257.865 107.694 259.612 104.618 262.239 102.414C264.867 100.21 268.201 99.0268 271.63 99.08H272.54C276.152 99.3087 279.551 100.865 282.084 103.45C284.617 106.034 286.104 109.464 286.26 113.08C286.38 115.57 286.35 118 286.33 120.57V124.08V128.28H257.17V124C257.17 122.79 257.17 121.56 257.09 120.28C256.906 117.212 256.983 114.135 257.32 111.08ZM173.21 112.71C173.448 109 175.09 105.519 177.802 102.975C180.514 100.432 184.092 99.0164 187.81 99.0164C191.528 99.0164 195.107 100.432 197.818 102.975C200.53 105.519 202.172 109 202.41 112.71C202.58 115.33 202.53 117.96 202.5 120.5V123.98V128.18H173.2V123.98C173.2 122.8 173.2 121.64 173.2 120.51C173.1 117.94 173.06 115.31 173.21 112.71ZM220.21 378.06C213.031 385.291 204.488 391.026 195.076 394.931C185.664 398.836 175.57 400.835 165.38 400.81H165.18C147.209 400.794 129.799 394.548 115.916 383.136C102.033 371.724 92.5358 355.852 89.0421 338.224C85.5483 320.595 88.2741 302.301 96.7551 286.457C105.236 270.612 118.948 258.198 135.554 251.329C152.161 244.46 170.636 243.561 187.831 248.784C205.027 254.008 219.879 265.031 229.859 279.977C239.839 294.922 244.329 312.865 242.564 330.75C240.799 348.634 232.889 365.353 220.18 378.06H220.21ZM411.8 358.77H249.14L250.72 353.39C255.99 335.45 256.99 318.62 253.67 303.39C250.25 287.62 242.11 273.12 229.5 260.3C211.8 242.3 190.76 233.17 167.01 233.17C156.762 233.263 146.573 234.74 136.72 237.56L131.4 239V204H411.8V358.77ZM411.8 191.07H131.39V141.19H160.55V161.72H173V141.15H244.31V161.76H256.91V141.1H328.09V161.69H340.69V141.18H411.82L411.8 191.07ZM355.43 103.23C354.86 103.229 354.291 103.279 353.73 103.38C354.391 103.27 355.06 103.223 355.73 103.24L355.43 103.23ZM355.43 103.23C354.86 103.229 354.291 103.279 353.73 103.38C354.391 103.27 355.06 103.223 355.73 103.24L355.43 103.23ZM355.43 103.23C354.86 103.229 354.291 103.279 353.73 103.38C354.391 103.27 355.06 103.223 355.73 103.24L355.43 103.23ZM355.43 103.23C354.86 103.229 354.291 103.279 353.73 103.38C354.391 103.27 355.06 103.223 355.73 103.24L355.43 103.23ZM355.43 103.23C354.86 103.229 354.291 103.279 353.73 103.38C354.391 103.27 355.06 103.223 355.73 103.24L355.43 103.23ZM355.43 103.23C354.86 103.229 354.291 103.279 353.73 103.38C354.391 103.27 355.06 103.223 355.73 103.24L355.43 103.23ZM355.43 103.23C354.86 103.229 354.291 103.279 353.73 103.38C354.391 103.27 355.06 103.223 355.73 103.24L355.43 103.23ZM355.43 103.23C354.86 103.229 354.291 103.279 353.73 103.38C354.391 103.27 355.06 103.223 355.73 103.24L355.43 103.23ZM355.43 103.23C354.86 103.229 354.291 103.279 353.73 103.38C354.391 103.27 355.06 103.223 355.73 103.24L355.43 103.23ZM355.43 103.23C354.86 103.229 354.291 103.279 353.73 103.38C354.391 103.27 355.06 103.223 355.73 103.24L355.43 103.23ZM355.43 103.23C354.86 103.229 354.291 103.279 353.73 103.38C354.391 103.27 355.06 103.223 355.73 103.24L355.43 103.23ZM355.43 103.23C354.86 103.229 354.291 103.279 353.73 103.38C354.391 103.27 355.06 103.223 355.73 103.24L355.43 103.23ZM355.43 103.23C354.86 103.229 354.291 103.279 353.73 103.38C354.391 103.27 355.06 103.223 355.73 103.24L355.43 103.23ZM355.43 103.23C354.86 103.229 354.291 103.279 353.73 103.38C354.391 103.27 355.06 103.223 355.73 103.24L355.43 103.23ZM355.43 103.23C354.86 103.229 354.291 103.279 353.73 103.38C354.391 103.27 355.06 103.223 355.73 103.24L355.43 103.23ZM355.43 103.23C354.86 103.229 354.291 103.279 353.73 103.38C354.391 103.27 355.06 103.223 355.73 103.24L355.43 103.23ZM355.43 103.23C354.86 103.229 354.291 103.279 353.73 103.38C354.391 103.27 355.06 103.223 355.73 103.24L355.43 103.23Z" fill="white"/>
<path d="M411.84 141.18V191.07H131.39V141.19H160.55V161.72H173.03V141.15H244.33V161.76H256.93V141.1H328.11V161.69H340.71V141.18H411.84Z" fill="#DAA900"/>
<path d="M244.43 323.22C244.401 344.163 236.068 364.24 221.259 379.049C206.45 393.858 186.373 402.191 165.43 402.22H165.23C149.614 402.178 134.361 397.51 121.397 388.804C108.433 380.098 98.3405 367.746 92.3934 353.307C86.4463 338.868 84.9117 322.99 87.9836 307.68C91.0555 292.369 98.5961 278.312 109.653 267.285C120.709 256.257 134.786 248.754 150.105 245.723C165.424 242.692 181.297 244.268 195.72 250.254C210.143 256.239 222.469 266.365 231.141 279.352C239.812 292.339 244.44 307.604 244.44 323.22H244.43Z" fill="#DAA900"/>
<path d="M286.61 233.42H319.68V245.54H286.61V233.42Z" fill="white"/>
<path d="M349.35 233.35H382.42V245.48H349.35V233.35Z" fill="white"/>
<path d="M286.61 275.33H319.68V287.45H286.61V275.33Z" fill="white"/>
<path d="M349.47 275.32H382.54V287.46H349.47V275.32Z" fill="white"/>
<path d="M286.39 317.26H319.59V329.35H286.39V317.26Z" fill="white"/>
<path d="M349.38 317.27H382.46V329.4H349.38V317.27Z" fill="white"/>
<path d="M189.85 373.85C186.5 373.15 183.16 372.44 179.85 371.76C175.97 370.97 172.11 369.99 168.2 369.47C162.3 368.69 156.64 370.2 150.98 371.74C148.038 372.574 145.025 373.136 141.98 373.42C138.021 373.794 134.064 372.692 130.869 370.326C127.674 367.959 125.466 364.495 124.67 360.6C123.915 357.805 123.954 354.855 124.78 352.081C125.607 349.306 127.189 346.816 129.35 344.89C135.83 338.74 142.35 332.58 148.83 326.48C153.152 322.368 158.889 320.075 164.855 320.075C170.82 320.075 176.558 322.368 180.88 326.48C187.44 332.62 193.96 338.793 200.44 345C205.27 349.62 206.65 355.28 204.73 361.58C202.81 367.88 198.63 371.96 192.04 373.31L191.55 373.4L189.94 373.52L189.85 373.85Z" fill="white"/>
<path d="M161.17 292.62C161 298 159.78 302.88 156.4 307C151.34 313.22 143.58 313.22 138.56 307C134.78 302.28 133.56 296.77 133.92 290.84C134.075 287.015 135.181 283.289 137.14 280C139.62 276.06 143 273.48 147.89 273.61C149.657 273.677 151.384 274.155 152.934 275.005C154.484 275.856 155.814 277.056 156.82 278.51C160 282.7 161 287.6 161.17 292.62Z" fill="white"/>
<path d="M168.52 292.42C168.508 288.055 169.665 283.767 171.87 280C174.32 276.1 177.68 273.56 182.52 273.66C184.181 273.717 185.809 274.139 187.288 274.896C188.768 275.653 190.062 276.726 191.08 278.04C193.533 281.084 195.066 284.765 195.5 288.65C196.43 294.81 195.5 300.65 192.01 305.84C189.43 309.65 186.01 312.12 181.1 311.64C177.18 311.26 174.44 308.92 172.32 305.8C169.722 301.83 168.397 297.163 168.52 292.42Z" fill="white"/>
<path d="M130.85 318.79C130.935 321.596 130.435 324.389 129.38 326.99C126.38 333.75 119.22 335.18 113.9 330.04C110.37 326.63 108.63 322.3 107.75 317.58C106.857 313.559 107.184 309.364 108.69 305.53C111.44 299.03 118.23 297.38 123.58 301.97C127.81 305.59 129.81 310.4 130.58 315.8C130.75 317 130.8 318.18 130.85 318.79Z" fill="white"/>
<path d="M198.84 318.46C198.878 313.026 200.849 307.783 204.4 303.67C205.49 302.431 206.778 301.38 208.21 300.56C210.053 299.432 212.262 299.062 214.372 299.531C216.482 299.999 218.327 301.268 219.52 303.07C221.259 305.513 222.243 308.413 222.35 311.41C222.836 317.363 221.144 323.29 217.59 328.09C216.731 329.367 215.62 330.454 214.325 331.285C213.03 332.116 211.579 332.672 210.06 332.92C205.86 333.51 202.23 331.28 200.3 327.05C199.166 324.335 198.667 321.397 198.84 318.46Z" fill="white"/>
</svg>
